icons/diff-added-16.svg

<svg width="16" height="16" viewBox="0 0 16 16" fill="none" xmlns="http://www.w3.org/2000/svg">
<path fill-rule="evenodd" clip-rule="evenodd" d="M13.25 2.5H2.75C2.61193 2.5 2.5 2.61193 2.5 2.75V13.25C2.5 13.3881 2.61193 13.5 2.75 13.5H13.25C13.3881 13.5 13.5 13.3881 13.5 13.25V2.75C13.5 2.61193 13.3881 2.5 13.25 2.5ZM2.75 1H13.25C14.2165 1 15 1.7835 15 2.75V13.25C15 14.2165 14.2165 15 13.25 15H2.75C1.7835 15 1 14.2165 1 13.25V2.75C1 1.7835 1.7835 1 2.75 1ZM8 4C8.41421 4 8.75 4.33579 8.75 4.75V7.25H11.25C11.6642 7.25 12 7.58579 12 8C12 8.41421 11.6642 8.75 11.25 8.75H8.75V11.25C8.75 11.6642 8.41421 12 8 12C7.58579 12 7.25 11.6642 7.25 11.25V8.75H4.75C4.33579 8.75 4 8.41421 4 8C4 7.58579 4.33579 7.25 4.75 7.25H7.25V4.75C7.25 4.33579 7.58579 4 8 4Z" fill="#24292E"/>
</svg>

<svg xmlns="http://www.w3.org/2000/svg" width="16" height="16" viewBox="0 0 16 16"><path fill-rule="evenodd" d="M13.25 2.5H2.75a.25.25 0 00-.25.25v10.5c0 .138.112.25.25.25h10.5a.25.25 0 00.25-.25V2.75a.25.25 0 00-.25-.25zM2.75 1h10.5c.966 0 1.75.784 1.75 1.75v10.5A1.75 1.75 0 0113.25 15H2.75A1.75 1.75 0 011 13.25V2.75C1 1.784 1.784 1 2.75 1zM8 4a.75.75 0 01.75.75v2.5h2.5a.75.75 0 010 1.5h-2.5v2.5a.75.75 0 01-1.5 0v-2.5h-2.5a.75.75 0 010-1.5h2.5v-2.5A.75.75 0 018 4z"/></svg>
